**kern	**kern	**dynam
*part1	*part1	*part1
*staff2	*staff1	*
*I"Piano	*	*
*clefF4	*clefG2	*
*k[b-e-a-d-]	*k[b-e-a-d-]	*
=1	=1	=1
*^	*	*
8r	4.AA-	4c-X 4dn 4f	.
(8A-L	.	.	.
8E-J)	.	8B- 8d-X 8e-	.
=	=	=	=
*	*	*^	*
8r	4.AA-	4.a-^^)	(4c	.
(8A-L	.	.	.	.
8E-J)	.	.	8e-)	.
=	=	=	=	=
8r	4.AA-	4.a-^^	(4c	.
(8A-L	.	.	.	.
8E-J)	.	.	8e-)	.
*	*	*v	*v	*
=	=	=	=
8r	4.FF	(4c 4f 4a-	.
(8FL	.	.	.
8CJ)	.	8f 8a- 8cc	.
=	=	=	=
*	*	*^	*
8r	4.FF	8.d-L 8.b-	4.en	.
(8GL	.	.	.	.
.	.	16cK 16a-	.	.
8CJ)	.	8B-J 8g	.	.
*	*	*v	*v	*
=	=	=	=
8r	4.FF	4c 4f 4a-	.
(8FL	.	.	.
8CJ)	.	8f 8a- 8cc	.
=	=	=	=
*	*	*^	*
8r	4.FF	8.d-L 8.b-	4.en	.
(8GL	.	.	.	.
.	.	16cK 16a-	.	.
8CJ)	.	8B-J 8g	.	.
*	*	*v	*v	*
=	=	=	=
8r	4.FF	4c 4f 4a-	<
(8FL	.	.	.
8CJ)	.	8A- 8c 8f	.
*v	*v	*	*
=	=	=
*-	*-	*-
!!!system-decoration: {(s1,s2)}
